X: 37518
T: Slipper, The
R: hornpipe
M: 4/4
K: Dmajor
|:(3ABc|d>f (3edc d>AB>G|F>dE>d D2 d2|c>eA>d c>de>f|g>e (3fed (3cBA B>c|
d>f (3edc d>AB>G|F>dE>d D2 d2|(3cBA B>c d>f (3edc|d2 f2 d2:|
|:e>c|A>ce>c A>ce>c|A>df>d A>df>d|B>ge>d c>de>f|(3gfe f>d (3cBA B>c|
d>fe>c d>AB>G|F>dE>d D2 d2|(3cBA B>c d>fe>c|d2 d>d d2:|

